assets/svg/593-C.svg

<svg xmlns="http://www.w3.org/2000/svg" xmlns:xlink="http://www.w3.org/1999/xlink" width="10.19" height="10.19"><defs><path id="a" d="M0 0h10.2v10.2H0z"/></defs><clipPath id="b"><use xlink:href="#a" overflow="visible"/></clipPath><path fill="none" stroke="#00AEEF" stroke-width=".5" d="M10.2 7.98c-1.3 0-2.36.96-2.53 2.2m-.02-.01a2.56 2.56 0 0 0-2.53-2.2c-1.28 0-2.35.97-2.52 2.2m0 0a2.6 2.6 0 0 0-2.54-2.2H0M7.66 0v.22M2.6-.04c-.02.1-.03.17-.03.26m5.11 0v-.24M2.6.22v-.25m7.58 7.69.02.3m0-.36a2.55 2.55 0 0 0-5.08.36m.05 0c0-1.4-1.15-2.55-2.56-2.55A2.54 2.54 0 0 0 .07 7.97m.03-.01c0-.24-.03-.47-.1-.7m10.2-4.8A2.56 2.56 0 0 0 7.68.27a2.56 2.56 0 0 0-2.55 2.56m.04 0A2.55 2.55 0 0 0 2.6.3 2.51 2.51 0 0 0 .07 2.83m.03 0c0-.23-.03-.47-.1-.7m10.2.72A2.56 2.56 0 0 0 7.63 5.4m.04 0a2.55 2.55 0 1 0-5.1 0m.03 0C2.6 4 1.46 2.85.05 2.85H.01" clip-path="url(#b)"/></svg>

<?xml version="1.0"?>
<svg xmlns="http://www.w3.org/2000/svg" xmlns:xlink="http://www.w3.org/1999/xlink" width="10.188" height="10.188">
  <defs>
    <path id="a" d="M0 0h10.2v10.2H0z"/>
  </defs>
  <clipPath id="b">
    <use xlink:href="#a" overflow="visible"/>
  </clipPath>
  <path fill="none" stroke="#00AEEF" stroke-width=".5" d="M10.2 7.98c-1.3 0-2.36.96-2.53 2.2M7.65 10.17c-.17-1.23-1.24-2.2-2.53-2.2-1.28 0-2.35.97-2.52 2.2M2.6 10.17c-.2-1.23-1.25-2.2-2.54-2.2-.02 0-.04 0-.06 0M7.66 0c0 .07 0 .15 0 .22M2.6-.04c-.02.1-.03.17-.03.26M7.68.22c0-.08 0-.16 0-.24M2.6.22c0-.08 0-.17 0-.25M10.18 7.66c0 .1.02.2.02.3M10.2 7.6c-.17-1.23-1.23-2.2-2.52-2.2-1.4 0-2.56 1.15-2.56 2.56M5.17 7.96c0-1.4-1.15-2.55-2.56-2.55C1.2 5.4.07 6.56.07 7.97M.1 7.96c0-.24-.03-.47-.1-.7M10.2 2.46C10.02 1.23 8.96.27 7.68.27c-1.4 0-2.55 1.15-2.55 2.56M5.17 2.83C5.17 1.44 4.02.3 2.6.3 1.2.28.07 1.43.07 2.83M.1 2.83c0-.23-.03-.47-.1-.7M10.2 2.85C8.77 2.85 7.63 4 7.63 5.4M7.67 5.4c0-1.4-1.15-2.55-2.56-2.55C3.7 2.85 2.57 4 2.57 5.4M2.6 5.4C2.6 4 1.46 2.85.05 2.85c0 0-.03 0-.04 0" clip-path="url(#b)"/>
</svg>
